symbolic/32x32/apps/wpscrackgui.svg

<svg xmlns="http://www.w3.org/2000/svg" width="32" height="32" version="1">
 <path fill="#4f4f4f" d="m16.054 6c-5.277 0-10.027 1.875-13.967 4.783l13.967 15.217 13.859-15.272c-3.924-2.8754-8.622-4.7284-13.859-4.7284z"/>
 <path opacity=".2" transform="matrix(.66686 0 0 .66686 -90.634 -158.71)" d="m159.9 252.99c-6.3037 0-12.154 2.0674-16.853 5.5589l16.941 18.441 16.765-18.441c-4.71-3.49-10.56-5.56-16.86-5.56z"/>
 <path fill="#797979" d="m16 9.9953c-4.2037 0-8.1052 1.3786-11.239 3.707l11.298 12.298 11.18-12.298c-3.133-2.328-7.035-3.7067-11.239-3.7067z"/>
 <path opacity=".2" transform="matrix(.66686 0 0 .66686 -90.634 -158.71)" d="m159.9 258.99c-4.7278 0-9.1156 1.5505-12.64 4.1692l12.706 13.831 12.574-13.831c-3.524-2.6186-7.9119-4.1692-12.64-4.1692z"/>
 <path fill="#e4e4e4" d="m16 13.996c-3.1528 0-6.0789 1.034-8.4289 2.7802l8.4729 9.224 8.3848-9.2233c-2.35-1.7463-5.2762-2.7802-8.4289-2.7802z"/>
 <path fill="#fff" opacity=".1" d="m16.054 6c-5.277 0-10.027 1.8756-13.967 4.783l0.5625 0.61328c3.828-2.679 8.3715-4.396 13.404-4.396 4.9932 0 9.4887 1.6964 13.299 4.3457l0.561-0.617c-3.925-2.8756-8.624-4.7288-13.86-4.7288z"/>
 <path fill="#fff" opacity=".1" d="m16.001 9.9961c-4.2037 0-8.1068 1.3787-11.24 3.707l0.56445 0.61329c3.0336-2.087 6.7172-3.3203 10.676-3.3203 3.9606 0 7.6433 1.2354 10.678 3.3242l0.561-0.617c-3.133-2.328-7.035-3.7069-11.238-3.7069z"/>
 <path fill="#fff" opacity=".1" d="m16.001 13.996c-3.1528 0-6.0796 1.035-8.4297 2.7812l0.56445 0.61328c2.248-1.5066 4.9575-2.3945 7.8652-2.3945 2.9096 0 5.6183 0.89 7.8672 2.3984l0.56055-0.61719c-2.35-1.7463-5.275-2.7812-8.4277-2.7812z"/>
 <path opacity=".2" d="m29.352 11.346-13.297 14.654-13.405-14.604c-0.1865 0.131-0.3795 0.252-0.5625 0.387l13.968 15.217 13.856-15.272c-0.182-0.1332-0.375-0.2531-0.56-0.3823z"/>
 <circle style="opacity:0.2" cx="22" cy="23" r="8"/>
 <circle style="fill:#5565cc" cx="22" cy="22" r="8"/>
 <path style="fill:#ffffff" d="M 20 18 A 3.9999999 3.9999999 0 0 0 16 22 A 3.9999999 3.9999999 0 0 0 20 26 A 3.9999999 3.9999999 0 0 0 24 22 A 3.9999999 3.9999999 0 0 0 20 18 z M 20 20 A 1.9999999 1.9999999 0 0 1 22 22 A 1.9999999 1.9999999 0 0 1 20 24 A 1.9999999 1.9999999 0 0 1 18 22 A 1.9999999 1.9999999 0 0 1 20 20 z"/>
 <rect style="fill:#ffffff" width="6" height="2" x="23" y="21"/>
 <rect style="fill:#ffffff" width="2" height="1" x="23" y="-28" transform="rotate(90)"/>
</svg>

<svg xmlns="http://www.w3.org/2000/svg" width="32" height="32" version="1"><path fill="#4f4f4f" d="M16.054 6C10.777 6 6.027 7.875 2.087 10.783L16.054 26l13.859-15.272C25.989 7.853 21.291 6 16.054 6z"/><path opacity=".2" d="M15.997 9.999a18.805 18.805 0 0 0-11.239 3.707l11.298 12.297 11.18-12.297a18.848 18.848 0 0 0-11.244-3.708z"/><path fill="#797979" d="M16 9.995a18.806 18.806 0 0 0-11.239 3.707L16.059 26l11.18-12.298A18.806 18.806 0 0 0 16 9.996z"/><path opacity=".2" d="M15.997 14a14.104 14.104 0 0 0-8.43 2.78l8.474 9.224 8.385-9.224a14.103 14.103 0 0 0-8.43-2.78z"/><path fill="#e4e4e4" d="M16 13.996a14.103 14.103 0 0 0-8.429 2.78L16.044 26l8.385-9.223a14.103 14.103 0 0 0-8.43-2.78z"/><path fill="#fff" opacity=".1" d="M16.054 6C10.777 6 6.027 7.876 2.087 10.783l.562.613C6.477 8.717 11.021 7 16.053 7c4.994 0 9.49 1.697 13.3 4.346l.56-.617C25.988 7.853 21.29 6 16.053 6z"/><path fill="#fff" opacity=".1" d="M16.001 9.996a18.808 18.808 0 0 0-11.24 3.707l.564.613a18.795 18.795 0 0 1 10.676-3.32c3.961 0 7.644 1.235 10.678 3.324l.561-.617a18.805 18.805 0 0 0-11.238-3.707z"/><path fill="#fff" opacity=".1" d="M16.001 13.996c-3.153 0-6.08 1.035-8.43 2.781l.565.613A14.096 14.096 0 0 1 16 14.996c2.91 0 5.618.89 7.867 2.398l.56-.617a14.1 14.1 0 0 0-8.427-2.781z"/><path opacity=".2" d="M29.352 11.346 16.055 26 2.65 11.396c-.186.131-.38.252-.562.387L16.056 27l13.856-15.272c-.182-.133-.375-.253-.56-.382z"/><circle style="opacity:.2" cx="22" cy="23" r="8"/><circle style="fill:#5565cc" cx="22" cy="22" r="8"/><path style="fill:#fff" d="M20 18a4 4 0 0 0-4 4 4 4 0 0 0 4 4 4 4 0 0 0 4-4 4 4 0 0 0-4-4zm0 2a2 2 0 0 1 2 2 2 2 0 0 1-2 2 2 2 0 0 1-2-2 2 2 0 0 1 2-2z"/><path style="fill:#fff" d="M23 21h6v2h-6z"/><path style="fill:#fff" transform="rotate(90)" d="M23-28h2v1h-2z"/></svg>
